apps/scalable/deepin-cloud-print-configurator.svg

<svg xmlns="http://www.w3.org/2000/svg" style="isolation:isolate" width="256" height="256"><defs><filter id="a" width="270.648" height="254.338" x="-7.32" y="2.95" filterUnits="userSpaceOnUse"><feGaussianBlur xmlns="http://www.w3.org/2000/svg" in="SourceGraphic" stdDeviation="4.294"/><feOffset xmlns="http://www.w3.org/2000/svg" dy="4" result="pf_100_offsetBlur"/><feFlood xmlns="http://www.w3.org/2000/svg" flood-opacity=".4"/><feComposite xmlns="http://www.w3.org/2000/svg" in2="pf_100_offsetBlur" operator="in" result="pf_100_dropShadow"/><feBlend xmlns="http://www.w3.org/2000/svg" in="SourceGraphic" in2="pf_100_dropShadow"/></filter></defs><g filter="url(#a)"><linearGradient id="b" x1=".533" x2=".533" y1="1" gradientTransform="matrix(244.648 0 0 228.338 5.676 11.947)" gradientUnits="userSpaceOnUse"><stop offset="0%" stop-color="#325fd1"/><stop offset="100%" stop-color="#6e98ff"/></linearGradient><path fill="url(#b)" d="M165.685 11.947c74.055 0 84.639 10.557 84.639 84.544v59.251c0 73.986-10.584 84.543-84.639 84.543h-75.37c-74.055 0-84.639-10.557-84.639-84.543V96.491c0-73.987 10.584-84.544 84.639-84.544h75.37z"/></g><g filter="url(#c)"><path fill="#F2F2F2" d="M78.161 134.515l-.707-.03c-12.064-.234-21.704-10.115-21.641-22.181a22.116 22.116 0 0 1 13.945-20.605l1.359-.545-.222-1.447a21.68 21.68 0 0 1-.274-3.317c0-12.25 9.962-22.211 22.211-22.211 1.914 0 3.869.266 5.816.795l1.866.508.422-1.885c2.809-12.679 14.078-21.685 27.064-21.63 9.988 0 19.25 5.42 24.174 14.141l.615 1.085 1.236-.159a27.232 27.232 0 0 1 3.591-.259c14.041.004 25.868 10.495 27.546 24.436l.107.929.815.463a27.832 27.832 0 0 1 14.104 24.151c0 15.311-12.453 27.765-27.764 27.765H78.161v-.004z"/><path fill="#333" d="M78.983 110.699h97.083a7.4 7.4 0 0 1 7.396 7.396 7.4 7.4 0 0 1-7.396 7.396H78.983a7.4 7.4 0 0 1-7.396-7.396 7.4 7.4 0 0 1 7.396-7.396z"/><path fill="#E6E6E6" d="M78.46 119.24h97.708v74.792H78.46z"/><path fill="#C8C4B7" d="M85.13 126.32h84.375v4.583H85.13zM85.13 138.82h84.375v4.583H85.13zM85.13 151.32h84.375v4.583H85.13zM85.13 163.82h84.375v4.583H85.13zM85.13 176.32h84.375v4.583H85.13z"/><path fill="#A6D74F" d="M161.837 96.116a6.379 6.379 0 0 1 6.375-6.375 6.379 6.379 0 0 1 6.375 6.375 6.379 6.379 0 0 1-6.375 6.375 6.379 6.379 0 0 1-6.375-6.375z"/></g><defs><filter id="c" width="204.375" height="212.066" x="25.81" y="15.97" filterUnits="userSpaceOnUse"><feGaussianBlur xmlns="http://www.w3.org/2000/svg" in="SourceGraphic" stdDeviation="4.294"/><feOffset xmlns="http://www.w3.org/2000/svg" dy="4" result="pf_100_offsetBlur"/><feFlood xmlns="http://www.w3.org/2000/svg" flood-opacity=".4"/><feComposite xmlns="http://www.w3.org/2000/svg" in2="pf_100_offsetBlur" operator="in" result="pf_100_dropShadow"/><feBlend xmlns="http://www.w3.org/2000/svg" in="SourceGraphic" in2="pf_100_dropShadow"/></filter></defs><g opacity=".4"><linearGradient id="d" x1=".517" x2=".517" y2="1"><stop offset="0%" stop-color="#fff"/><stop offset="12.5%" stop-opacity=".098" stop-color="#fff"/><stop offset="92.5%" stop-opacity=".098"/><stop offset="100%" stop-opacity=".498"/></linearGradient><path fill="none" stroke="url(#d)" stroke-linecap="round" stroke-linejoin="round" stroke-width="4.077" d="M165.685 11.947c74.055 0 84.639 10.557 84.639 84.544v59.251c0 73.986-10.584 84.543-84.639 84.543h-75.37c-74.055 0-84.639-10.557-84.639-84.543V96.491c0-73.987 10.584-84.544 84.639-84.544h75.37z" vector-effect="non-scaling-stroke"/></g></svg>

<svg xmlns="http://www.w3.org/2000/svg" style="isolation:isolate" width="256" height="256" viewBox="0 0 256 256">
 <defs>
  <filter id="SRUIGpaAHLNYadOMjqUFc73mfdn4guL9" width="270.648" height="254.338" x="-7.32" y="2.95" filterUnits="userSpaceOnUse">
   <feGaussianBlur xmlns="http://www.w3.org/2000/svg" in="SourceGraphic" stdDeviation="4.294"/>
   <feOffset xmlns="http://www.w3.org/2000/svg" dx="0" dy="4" result="pf_100_offsetBlur"/>
   <feFlood xmlns="http://www.w3.org/2000/svg" flood-opacity=".4"/>
   <feComposite xmlns="http://www.w3.org/2000/svg" in2="pf_100_offsetBlur" operator="in" result="pf_100_dropShadow"/>
   <feBlend xmlns="http://www.w3.org/2000/svg" in="SourceGraphic" in2="pf_100_dropShadow" mode="normal"/>
  </filter>
 </defs>
 <g filter="url(#SRUIGpaAHLNYadOMjqUFc73mfdn4guL9)">
  <linearGradient id="_lgradient_203" x1=".533" x2=".533" y1="1" y2="0" gradientTransform="matrix(244.648,0,0,228.338,5.676,11.947)" gradientUnits="userSpaceOnUse">
   <stop offset="0%" style="stop-color:rgb(50,95,209)"/>
   <stop offset="100%" style="stop-color:rgb(110,152,255)"/>
  </linearGradient>
  <path fill="url(#_lgradient_203)" d="M 165.685 11.947 C 239.74 11.947 250.324 22.504 250.324 96.491 L 250.324 155.742 C 250.324 229.728 239.74 240.285 165.685 240.285 L 90.315 240.285 C 16.26 240.285 5.676 229.728 5.676 155.742 L 5.676 96.491 C 5.676 22.504 16.26 11.947 90.315 11.947 L 165.685 11.947 Z"/>
 </g>
 <g filter="url(#HPp9F04eNtnf4ZVm23cBqvJoR2GOQEhL)">
  <path fill="#F2F2F2" d="M 78.161 134.515 L 77.454 134.485 C 65.39 134.251 55.75 124.37 55.813 112.304 C 55.791 103.224 61.321 95.053 69.758 91.699 L 71.117 91.154 L 70.895 89.707 C 70.719 88.61 70.627 87.501 70.621 86.39 C 70.621 74.14 80.583 64.179 92.832 64.179 C 94.746 64.179 96.701 64.445 98.648 64.974 L 100.514 65.482 L 100.936 63.597 C 103.745 50.918 115.014 41.912 128 41.967 C 137.988 41.967 147.25 47.387 152.174 56.108 L 152.789 57.193 L 154.025 57.034 C 155.202 56.878 156.394 56.775 157.616 56.775 C 171.657 56.779 183.484 67.27 185.162 81.211 L 185.269 82.14 L 186.084 82.603 C 194.782 87.535 200.167 96.755 200.188 106.754 C 200.188 122.065 187.735 134.519 172.424 134.519 L 78.161 134.519 L 78.161 134.515 Z"/>
  <path fill="#333333" d="M 78.983 110.699 L 176.066 110.699 C 180.148 110.699 183.462 114.013 183.462 118.095 L 183.462 118.095 C 183.462 122.177 180.148 125.491 176.066 125.491 L 78.983 125.491 C 74.901 125.491 71.587 122.177 71.587 118.095 L 71.587 118.095 C 71.587 114.013 74.901 110.699 78.983 110.699 Z"/>
  <rect fill="#E6E6E6" width="97.708" height="74.792" x="78.46" y="119.24" transform="matrix(1,0,0,1,0,0)"/>
  <rect fill="#C8C4B7" width="84.375" height="4.583" x="85.13" y="126.32" transform="matrix(1,0,0,1,0,0)"/>
  <rect fill="#C8C4B7" width="84.375" height="4.583" x="85.13" y="138.82" transform="matrix(1,0,0,1,0,0)"/>
  <rect fill="#C8C4B7" width="84.375" height="4.583" x="85.13" y="151.32" transform="matrix(1,0,0,1,0,0)"/>
  <rect fill="#C8C4B7" width="84.375" height="4.583" x="85.13" y="163.82" transform="matrix(1,0,0,1,0,0)"/>
  <rect fill="#C8C4B7" width="84.375" height="4.583" x="85.13" y="176.32" transform="matrix(1,0,0,1,0,0)"/>
  <path fill="#A6D74F" d="M 161.837 96.116 C 161.837 92.598 164.694 89.741 168.212 89.741 C 171.73 89.741 174.587 92.598 174.587 96.116 C 174.587 99.634 171.73 102.491 168.212 102.491 C 164.694 102.491 161.837 99.634 161.837 96.116 Z"/>
 </g>
 <defs>
  <filter id="HPp9F04eNtnf4ZVm23cBqvJoR2GOQEhL" width="204.375" height="212.066" x="25.81" y="15.97" filterUnits="userSpaceOnUse">
   <feGaussianBlur xmlns="http://www.w3.org/2000/svg" in="SourceGraphic" stdDeviation="4.294"/>
   <feOffset xmlns="http://www.w3.org/2000/svg" dx="0" dy="4" result="pf_100_offsetBlur"/>
   <feFlood xmlns="http://www.w3.org/2000/svg" flood-opacity=".4"/>
   <feComposite xmlns="http://www.w3.org/2000/svg" in2="pf_100_offsetBlur" operator="in" result="pf_100_dropShadow"/>
   <feBlend xmlns="http://www.w3.org/2000/svg" in="SourceGraphic" in2="pf_100_dropShadow" mode="normal"/>
  </filter>
 </defs>
 <g opacity=".4">
  <linearGradient id="_lgradient_204" x1=".517" x2=".517" y1="0" y2="1">
   <stop offset="0%" style="stop-color:rgb(255,255,255)"/>
   <stop offset="12.5%" stop-opacity=".098" style="stop-color:rgb(255,255,255)"/>
   <stop offset="92.5%" stop-opacity=".098" style="stop-color:rgb(0,0,0)"/>
   <stop offset="100%" stop-opacity=".498" style="stop-color:rgb(0,0,0)"/>
  </linearGradient>
  <path fill="none" stroke="url(#_lgradient_204)" stroke-linecap="round" stroke-linejoin="round" stroke-width="4.077" d="M 165.685 11.947 C 239.74 11.947 250.324 22.504 250.324 96.491 L 250.324 155.742 C 250.324 229.728 239.74 240.285 165.685 240.285 L 90.315 240.285 C 16.26 240.285 5.676 229.728 5.676 155.742 L 5.676 96.491 C 5.676 22.504 16.26 11.947 90.315 11.947 L 165.685 11.947 Z" vector-effect="non-scaling-stroke"/>
 </g>
</svg>
